X: 35760
T: Sally
R: reel
M: 4/4
K: Gmajor
|GEDE GABG|ADBD cDBD|GEDE GABd|gedB AcBA|
GEDE GABG|ADBD cDBD|GEDE GABd|gedB G3B||
dgbg agbg|dgbg ageg|dgbg agbg|agba g3e|
dgbg agbg|dgbg ageg|bgaf gfed|gedB G3A||

